svg/Pictogram/pictograms-nps-winter-snow-shoeing.svg

<svg xmlns="http://www.w3.org/2000/svg" viewBox="0 0 256 256"><path d="m0 0c-.54 0-.979-.44-.979-.981v-7.522c0-.54.439-.979.979-.979h7.522c.541 0 .98.439.98.979v7.522c0 .541-.439.981-.98.981h-7.522" fill="#fff" transform="matrix(25.90307 0 0-25.90307 30.553 5.191)"/><path d="m0 0c.652 0 1.18.527 1.18 1.18v7.521c0 .653-.528 1.182-1.18 1.182h-7.522c-.651 0-1.18-.529-1.18-1.182v-7.521c0-.653.529-1.18 1.18-1.18h7.522" transform="matrix(25.90307 0 0-25.90307 225.41 256)"/><g fill="#fff"><path d="m0 0c.365 0 .66.297.66.662 0 .365-.295.662-.66.662-.365 0-.662-.297-.662-.662 0-.365.297-.662.662-.662" transform="matrix(25.90307 0 0-25.90307 165.46 54.44)"/><path d="m0 0c.016-.008.031-.012.049-.016.207-.048.412.079.461.284.037.156-.028.312-.151.4l-.156-.182c-.133-.152-.363-.17-.516-.037-.089.078-.125.19-.119.299l-1.163.02 1.595-.768m3.563-.096c.017-.002.035-.004.052-.004.211 0 .383.172.383.383 0 .211-.172.383-.383.383v-.08c0-.201-.164-.365-.365-.365-.178 0-.318.129-.352.297l-1.062-.235 1.727-.379m1.054 4.053c-.115-.266-.361-.186-.361-.186l-1.035.391c-.104.037-.184.123-.211.229l-.235.683-.365-1.01 1.082-1.127c.135-.236.123-.41.123-.41v-1.554c.383 0 .694-.311.694-.694 0-.383-.311-.693-.694-.693-.054 0-.109.006-.162.019l-2.275.506v.336l1.707.379v1.416l-1.149 1.147-.175-1.202c-.03-.152-.139-.295-.202-.365l-.796-.924c-.012.001-.028.001-.043.008l.043-.008c.207-.162.314-.433.25-.705-.088-.373-.463-.603-.834-.515-.055.013-.106.031-.155.054l-2.096 1.02.078.326 1.923-.027.914 1.056.283 2.078.594 1.573-.823-.473-.49-.961c-.148-.305-.416-.144-.416-.144-.242.138-.148.373-.148.373l.502 1.015c.134.258.242.297.242.297l1.174.643c.255.176.552.039.552.039l.676-.256c.338-.121.352-.311.352-.311l.418-1.338.9-.318c0 0 .242-.103.158-.371" transform="matrix(25.90307 0 0-25.90307 91.84 222.35)"/></g></svg>

<?xml version="1.0" encoding="UTF-8" standalone="no"?>
<!-- Created with Inkscape (http://www.inkscape.org/) -->
<svg
   xmlns:dc="http://purl.org/dc/elements/1.1/"
   xmlns:cc="http://creativecommons.org/ns#"
   xmlns:rdf="http://www.w3.org/1999/02/22-rdf-syntax-ns#"
   xmlns:svg="http://www.w3.org/2000/svg"
   xmlns="http://www.w3.org/2000/svg"
   xmlns:sodipodi="http://sodipodi.sourceforge.net/DTD/sodipodi-0.dtd"
   xmlns:inkscape="http://www.inkscape.org/namespaces/inkscape"
   width="256"
   height="256"
   id="svg8302"
   sodipodi:version="0.32"
   inkscape:version="0.46"
   version="1.0"
   sodipodi:docname="pictograms-nps-winter-snow-shoeing-2.svg"
   inkscape:output_extension="org.inkscape.output.svg.inkscape">
  <defs
     id="defs8304">
    <inkscape:perspective
       sodipodi:type="inkscape:persp3d"
       inkscape:vp_x="0 : 526.18109 : 1"
       inkscape:vp_y="0 : 1000 : 0"
       inkscape:vp_z="744.09448 : 526.18109 : 1"
       inkscape:persp3d-origin="372.04724 : 350.78739 : 1"
       id="perspective8310" />
  </defs>
  <sodipodi:namedview
     id="base"
     pagecolor="#ffffff"
     bordercolor="#666666"
     borderopacity="1.0"
     gridtolerance="10000"
     guidetolerance="10"
     objecttolerance="10"
     inkscape:pageopacity="0.0"
     inkscape:pageshadow="2"
     inkscape:zoom="0.7"
     inkscape:cx="61.634556"
     inkscape:cy="136.73676"
     inkscape:document-units="px"
     inkscape:current-layer="layer1"
     showgrid="false"
     inkscape:window-width="738"
     inkscape:window-height="674"
     inkscape:window-x="0"
     inkscape:window-y="198" />
  <metadata
     id="metadata8307">
    <rdf:RDF>
      <cc:Work
         rdf:about="">
        <dc:format>image/svg+xml</dc:format>
        <dc:type
           rdf:resource="http://purl.org/dc/dcmitype/StillImage" />
      </cc:Work>
    </rdf:RDF>
  </metadata>
  <g
     inkscape:label="Layer 1"
     inkscape:groupmode="layer"
     id="layer1">
    <g
       id="g5386"
       transform="matrix(25.903066,0,0,-25.903066,30.55277,5.1909744)">
      <path
         d="M 0,0 C -0.54,0 -0.979,-0.44 -0.979,-0.981 L -0.979,-8.503 C -0.979,-9.043 -0.54,-9.482 0,-9.482 L 7.522,-9.482 C 8.063,-9.482 8.502,-9.043 8.502,-8.503 L 8.502,-0.981 C 8.502,-0.44 8.063,0 7.522,0 L 0,0 z"
         style="fill:#ffffff;fill-opacity:1;fill-rule:nonzero;stroke:none"
         id="path5388" />
    </g>
    <g
       id="g5390"
       transform="matrix(25.903066,0,0,-25.903066,225.40848,256)">
      <path
         d="M 0,0 C 0.652,0 1.18,0.527 1.18,1.18 L 1.18,8.701 C 1.18,9.354 0.652,9.883 0,9.883 L -7.522,9.883 C -8.173,9.883 -8.702,9.354 -8.702,8.701 L -8.702,1.18 C -8.702,0.527 -8.173,0 -7.522,0 L 0,0 z"
         style="fill:#000000;fill-opacity:1;fill-rule:nonzero;stroke:none"
         id="path5392" />
    </g>
    <g
       id="g5394"
       transform="matrix(25.903066,0,0,-25.903066,165.45573,54.440577)">
      <path
         d="M 0,0 C 0.365,0 0.66,0.297 0.66,0.662 C 0.66,1.027 0.365,1.324 0,1.324 C -0.365,1.324 -0.662,1.027 -0.662,0.662 C -0.662,0.297 -0.365,0 0,0"
         style="fill:#ffffff;fill-opacity:1;fill-rule:nonzero;stroke:none"
         id="path5396" />
    </g>
    <g
       id="g5398"
       transform="matrix(25.903066,0,0,-25.903066,91.844604,222.3542)">
      <path
         d="M 0,0 C 0.016,-0.008 0.031,-0.012 0.049,-0.016 C 0.256,-0.064 0.461,0.063 0.51,0.268 C 0.547,0.424 0.482,0.58 0.359,0.668 L 0.203,0.486 C 0.07,0.334 -0.16,0.316 -0.313,0.449 C -0.402,0.527 -0.438,0.639 -0.432,0.748 L -1.595,0.768 L 0,0 z M 3.563,-0.096 C 3.58,-0.098 3.598,-0.1 3.615,-0.1 C 3.826,-0.1 3.998,0.072 3.998,0.283 C 3.998,0.494 3.826,0.666 3.615,0.666 L 3.615,0.586 C 3.615,0.385 3.451,0.221 3.25,0.221 C 3.072,0.221 2.932,0.35 2.898,0.518 L 1.836,0.283 L 3.563,-0.096 z M 4.617,3.957 C 4.502,3.691 4.256,3.771 4.256,3.771 L 3.221,4.162 C 3.117,4.199 3.037,4.285 3.01,4.391 L 2.775,5.074 L 2.41,4.068 L 3.492,2.941 C 3.627,2.705 3.615,2.531 3.615,2.531 L 3.615,0.977 C 3.998,0.977 4.309,0.666 4.309,0.283 C 4.309,-0.1 3.998,-0.41 3.615,-0.41 C 3.561,-0.41 3.506,-0.404 3.453,-0.391 L 1.178,0.115 L 1.178,0.451 L 2.885,0.83 L 2.885,2.246 L 1.736,3.393 L 1.561,2.191 C 1.531,2.039 1.422,1.896 1.359,1.826 L 0.563,0.902 C 0.551,0.912 0.535,0.912 0.52,0.91 L 0.563,0.902 C 0.77,0.74 0.877,0.469 0.813,0.197 C 0.725,-0.176 0.35,-0.406 -0.021,-0.318 C -0.076,-0.305 -0.127,-0.287 -0.176,-0.264 L -2.272,0.756 L -2.194,1.082 L -0.271,1.055 L 0.643,2.111 L 0.926,4.189 L 1.52,5.762 L 0.697,5.289 L 0.207,4.328 C 0.059,4.023 -0.209,4.184 -0.209,4.184 C -0.451,4.322 -0.357,4.557 -0.357,4.557 L 0.145,5.572 C 0.279,5.83 0.387,5.869 0.387,5.869 L 1.561,6.512 C 1.816,6.688 2.113,6.551 2.113,6.551 L 2.789,6.295 C 3.127,6.174 3.141,5.984 3.141,5.984 L 3.559,4.646 L 4.459,4.328 C 4.459,4.328 4.701,4.225 4.617,3.957"
         style="fill:#ffffff;fill-opacity:1;fill-rule:nonzero;stroke:none"
         id="path5400" />
    </g>
  </g>
</svg>
